X:244130
T:The Earl of Angus and Arran
C:
B:
H:
O:Kevin Fraser
Z:Kevin Fraser
Q:1/4=108
K:HP
M:4/4
L:1/8
R:Strathspey
U:V = !accent!
V:M name="Melody" sname="Melody" " " gstem=up stem=down " " 
V:H name="Harmony" sname="Harmony" " " gstem=up stem=down " " 
V:C name="C-Harmony" sname="C-Harmony" " " gstem=up stem=down " " 
V:S clef=none name="Snare" sname="Snare" " " gstem=up stem=down dyn=up " " 
V:B clef=none name="Bass" sname="Bass" " " gstem=up stem=down dyn=up " " 
V:T clef=none name="Tenor" sname="Tenor" " " gstem=up stem=down dyn=up " " 
V:BB clef=bass octave=-1 transpose=-1 name="Brass Bass" sname="ABCD-C" " " gstem=up stem=down " " 
V:BC transpose=-1 name="Brass Chord" sname="ABCD-D" " " gstem=up stem=down " " 
V:BD transpose=-1 name="Brass Chord 2" sname="ABCD-B" " " gstem=up stem=down " " 
V:P octave=-1 name="Piano" " gstem=up stem=down " 
I:MIDI=program 110
%%MIDI gracedivider 4
I:linebreak $
%%score {M H}
%%MIDI program 109 #bagpipes
%%MIDI vol 100
V:M
K:Dmaj
A |{Gdc}d2 {ag}a2 {gfg}f2 ed2f |(6:2:4gB5e5d (6:2:4cA5B5c |\
(6:2:2dd5~a2 {g}(6:2:4f5ed5f |(5:2:4gB5e5c d2d :|
a |f<ad>g f<ad>c' |d'<df>d c<ee>g |f<ad>a fad>f' |e'>d'c'>b ~a2af |
g<be>g f<ad>f |e>~fg>f edcA |d<fe<g f<ag>b |a<d'c'>e' d'2d'2 |]
 
